X:205
T:O'The Days When I Was Young. JC.209
R:Air
S:John Clare,Poet,Helpstone (1793-1864)
N:No TS given: 2/4 added.
N:Song text exists. See Deacon.
O:England
A:Northamptonshire
Z:vmp.P. Headford
M:6/8
L:1/8
Q:2/4=60
K:D
dB|\
AFDFE2dB|AFDFA2dB|AFDFB2dB|!
AFDFE2dB|AFDFA2dB|AFDFB2 eG|Fdecd2f/f/g/e/|!
fdAcd2dd|ccBBA2Ac|edcBA2dd|ccBBA2AB/c/|!
dFEDA4|A6dB|AFDFE2dB|AFDFA2dB|!
AFDFB2eG|Fdecd2e/f/g/e/|fdAcd2|]

